X: 6289
T: Carolinka's Birthday
R: jig
M: 6/8
K: Gmajor
d2|BGG DGG|B'GG B2G|ABc dcB|ABG FED|
BGG dGG|BAG B2G|ABc def|agf g2d|
BGG DGG|B'GG B2G|ABc dcB|ABG FED|
BGG dGG|BAG B2G|ABc def|agf g2e|
dBB aBB|gBB aBB|dBB aBB|fga gfe|
dBB aBB|gBB aBB|efg a2b|afd g2e|
dBB aBB|gBB aBB|dBB aBB|fga gfe|
dBB aBB|gBB aBB|efg a2b|afd g2d|

